X: 1
T: North Highland Country Dance
M: 6/8
L: 1/8
R: jig
K: Amix
|:e|A2e ece|ege d2e|G2d dBd|dgd B2e|
A2e ece|ege d2e|GAB dcB|cAA A2:|
|:g|fga c2e|eAe c2e|G2d dBd|dgd B2g|
fga c2e|eAe c2e|GAB dcB|cAA A2:|
